images/sport.svg

<svg width="11" height="6" viewBox="0 0 11 6" fill="none" xmlns="http://www.w3.org/2000/svg">
<path d="M10 2.00004C9.9 1.90004 9.80001 1.80002 9.60001 1.80002H9.39999V1.60001C9.39999 1.30001 9.09999 1.00004 8.79999 1.00004H8.5V0.700049C8.5 0.500049 8.39999 0.400024 8.29999 0.300024C8.09999 0.100024 7.7 0.100024 7.5 0.300024C7.4 0.400024 7.29999 0.600049 7.29999 0.700049V2.20005H3.39999V0.700049C3.39999 0.500049 3.30001 0.400024 3.20001 0.300024C3.00001 0.100024 2.59999 0.100024 2.39999 0.300024C2.29999 0.400024 2.20001 0.600049 2.20001 0.700049V1.00004H1.89999C1.69999 1.00004 1.6 1.10005 1.5 1.20005C1.4 1.30005 1.29999 1.40001 1.29999 1.60001V1.80002H1C0.9 1.80002 0.700006 1.90004 0.600006 2.00004C0.500006 2.10004 0.5 2.30006 0.5 2.40006V3.30002C0.5 3.50002 0.600006 3.60005 0.600006 3.70005C0.700006 3.80005 0.8 3.90006 1 3.90006H1.20001V4.10001C1.20001 4.20001 1.29999 4.40004 1.39999 4.50004C1.49999 4.60004 1.69999 4.70005 1.79999 4.70005H2.10001V5.00004C2.10001 5.20004 2.19999 5.30006 2.29999 5.40006C2.39999 5.50006 2.60001 5.60001 2.70001 5.60001C2.90001 5.60001 3.00001 5.50006 3.10001 5.40006C3.20001 5.30006 3.29999 5.10004 3.29999 5.00004V3.50004H7.20001V5.00004C7.20001 5.20004 7.29999 5.30006 7.39999 5.40006C7.49999 5.50006 7.69999 5.60001 7.79999 5.60001C7.99999 5.60001 8.10001 5.50006 8.20001 5.40006C8.30001 5.30006 8.39999 5.10004 8.39999 5.00004V4.70005H8.70001C9.00001 4.70005 9.29999 4.40001 9.29999 4.10001V3.90006H9.5C9.6 3.90006 9.79999 3.80005 9.89999 3.70005C9.99999 3.60005 10 3.40002 10 3.30002V2.40006C10.1 2.20006 10.1 2.10004 10 2.00004ZM1 3.60001C0.9 3.60001 0.899988 3.60004 0.799988 3.50004C0.699988 3.40004 0.700012 3.40002 0.700012 3.30002V2.40006C0.700012 2.30006 0.699988 2.20005 0.799988 2.20005C0.799988 2.10005 0.9 2.10001 1 2.10001H1.20001V3.60001H1ZM1.79999 4.30002C1.69999 4.30002 1.70001 4.30005 1.60001 4.20005C1.60001 4.20005 1.5 4.10004 1.5 4.00004V1.50004C1.5 1.40004 1.50001 1.40002 1.60001 1.30002C1.70001 1.30002 1.69999 1.20005 1.79999 1.20005H2.10001V4.20005H1.79999V4.30002ZM3.10001 5.00004C3.10001 5.10004 3.1 5.10005 3 5.20005C2.9 5.30005 2.70001 5.30005 2.60001 5.20005C2.50001 5.10005 2.5 5.10004 2.5 5.00004V0.700049C2.5 0.600049 2.50001 0.600037 2.60001 0.500037C2.70001 0.400037 2.69999 0.400061 2.79999 0.400061C2.89999 0.400061 3 0.400037 3 0.500037C3.1 0.600037 3.10001 0.600049 3.10001 0.700049V5.00004ZM3.39999 3.10001V2.50004H7.29999V3.10001H3.39999ZM8.20001 5.00004C8.20001 5.10004 8.20001 5.10005 8.10001 5.20005C8.00001 5.30005 7.80001 5.30005 7.70001 5.20005C7.60001 5.10005 7.60001 5.10004 7.60001 5.00004V0.700049C7.60001 0.600049 7.60001 0.600037 7.70001 0.500037C7.80001 0.400037 7.79999 0.400061 7.89999 0.400061C7.99999 0.400061 8.10001 0.400037 8.10001 0.500037C8.20001 0.600037 8.20001 0.600049 8.20001 0.700049V5.00004ZM9.10001 4.10001C9.10001 4.30001 8.99999 4.40006 8.79999 4.40006H8.5V1.40006H8.79999C8.99999 1.40006 9.10001 1.50005 9.10001 1.70005V4.10001ZM9.79999 3.30002C9.79999 3.40002 9.80001 3.50004 9.70001 3.50004C9.70001 3.60004 9.6 3.60001 9.5 3.60001H9.29999V2.10001H9.5C9.6 2.10001 9.60001 2.10005 9.70001 2.20005C9.70001 2.30005 9.79999 2.30006 9.79999 2.40006V3.30002Z" fill="white"/>
</svg>

<svg width="11" height="6" fill="none" xmlns="http://www.w3.org/2000/svg"><path d="M10 2c-.1-.1-.2-.2-.4-.2h-.2v-.2c0-.3-.3-.6-.6-.6h-.3V.7c0-.2-.1-.3-.2-.4-.2-.2-.6-.2-.8 0-.1.1-.2.3-.2.4v1.5H3.4V.7c0-.2-.1-.3-.2-.4-.2-.2-.6-.2-.8 0-.1.1-.2.3-.2.4V1h-.3c-.2 0-.3.1-.4.2-.1.1-.2.2-.2.4v.2H1c-.1 0-.3.1-.4.2-.1.1-.1.3-.1.4v.9c0 .2.1.3.1.4.1.1.2.2.4.2h.2v.2c0 .1.1.3.2.4.1.1.3.2.4.2h.3V5c0 .2.1.3.2.4.1.1.3.2.4.2.2 0 .3-.1.4-.2.1-.1.2-.3.2-.4V3.5h3.9V5c0 .2.1.3.2.4.1.1.3.2.4.2.2 0 .3-.1.4-.2.1-.1.2-.3.2-.4v-.3h.3c.3 0 .6-.3.6-.6v-.2h.2c.1 0 .3-.1.4-.2.1-.1.1-.3.1-.4v-.9c.1-.2.1-.3 0-.4ZM1 3.6c-.1 0-.1 0-.2-.1s-.1-.1-.1-.2v-.9c0-.1 0-.2.1-.2 0-.1.1-.1.2-.1h.2v1.5H1Zm.8.7c-.1 0-.1 0-.2-.1 0 0-.1-.1-.1-.2V1.5c0-.1 0-.1.1-.2.1 0 .1-.1.2-.1h.3v3h-.3v.1Zm1.3.7c0 .1 0 .1-.1.2s-.3.1-.4 0c-.1-.1-.1-.1-.1-.2V.7c0-.1 0-.1.1-.2s.1-.1.2-.1.2 0 .2.1c.1.1.1.1.1.2V5Zm.3-1.9v-.6h3.9v.6H3.4ZM8.2 5c0 .1 0 .1-.1.2s-.3.1-.4 0c-.1-.1-.1-.1-.1-.2V.7c0-.1 0-.1.1-.2s.1-.1.2-.1.2 0 .2.1c.1.1.1.1.1.2V5Zm.9-.9c0 .2-.1.3-.3.3h-.3v-3h.3c.2 0 .3.1.3.3v2.4Zm.7-.8c0 .1 0 .2-.1.2 0 .1-.1.1-.2.1h-.2V2.1h.2c.1 0 .1 0 .2.1 0 .1.1.1.1.2v.9Z" fill="#fff"/></svg>
